Numix-Circle/48x48/apps/bareftp.svg

<?xml version="1.0" encoding="UTF-8" standalone="no"?>
<svg
   xmlns:dc="http://purl.org/dc/elements/1.1/"
   xmlns:cc="http://creativecommons.org/ns#"
   xmlns:rdf="http://www.w3.org/1999/02/22-rdf-syntax-ns#"
   xmlns:svg="http://www.w3.org/2000/svg"
   xmlns="http://www.w3.org/2000/svg"
   xmlns:xlink="http://www.w3.org/1999/xlink"
   xmlns:sodipodi="http://sodipodi.sourceforge.net/DTD/sodipodi-0.dtd"
   xmlns:inkscape="http://www.inkscape.org/namespaces/inkscape"
   viewBox="0 0 48 48"
   id="svg2"
   version="1.1"
   inkscape:version="0.91 r13725"
   sodipodi:docname="bareftp.svg">
  <metadata
     id="metadata61">
    <rdf:RDF>
      <cc:Work
         rdf:about="">
        <dc:format>image/svg+xml</dc:format>
        <dc:type
           rdf:resource="http://purl.org/dc/dcmitype/StillImage" />
        <dc:title />
      </cc:Work>
    </rdf:RDF>
  </metadata>
  <sodipodi:namedview
     pagecolor="#ffffff"
     bordercolor="#666666"
     borderopacity="1"
     objecttolerance="10"
     gridtolerance="10"
     guidetolerance="10"
     inkscape:pageopacity="0"
     inkscape:pageshadow="2"
     inkscape:window-width="1366"
     inkscape:window-height="713"
     id="namedview59"
     showgrid="false"
     showguides="false"
     inkscape:zoom="16"
     inkscape:cx="21.858378"
     inkscape:cy="22.721903"
     inkscape:window-x="0"
     inkscape:window-y="28"
     inkscape:window-maximized="1"
     inkscape:current-layer="svg2">
    <inkscape:grid
       type="xygrid"
       id="grid3389" />
  </sodipodi:namedview>
  <defs
     id="defs4">
    <linearGradient
       inkscape:collect="always"
       id="linearGradient4277">
      <stop
         style="stop-color:#f8e653;stop-opacity:1"
         offset="0"
         id="stop4279" />
      <stop
         style="stop-color:#f9e967;stop-opacity:1"
         offset="1"
         id="stop4281" />
    </linearGradient>
    <clipPath
       id="clipPath-824049301">
      <g
         transform="translate(0,-1004.3622)"
         id="g17">
        <path
           d="m -24 13 c 0 1.105 -0.672 2 -1.5 2 -0.828 0 -1.5 -0.895 -1.5 -2 0 -1.105 0.672 -2 1.5 -2 0.828 0 1.5 0.895 1.5 2 z"
           transform="matrix(15.333333,0,0,11.5,414.99999,878.8622)"
           fill="#1890d0"
           id="path19" />
      </g>
    </clipPath>
    <linearGradient
       inkscape:collect="always"
       xlink:href="#linearGradient4277"
       id="linearGradient4283"
       x1="1"
       y1="47"
       x2="1"
       y2="1"
       gradientUnits="userSpaceOnUse" />
    <linearGradient
       inkscape:collect="always"
       xlink:href="#linearGradient4205"
       id="linearGradient4215"
       gradientUnits="userSpaceOnUse"
       x1="15"
       y1="18"
       x2="15"
       y2="20"
       gradientTransform="translate(-1,9.9999986)" />
    <linearGradient
       inkscape:collect="always"
       id="linearGradient4205">
      <stop
         style="stop-color:#9b9b9b;stop-opacity:1"
         offset="0"
         id="stop4207" />
      <stop
         style="stop-color:#b4b4b4;stop-opacity:1"
         offset="1"
         id="stop4209" />
    </linearGradient>
    <linearGradient
       gradientTransform="translate(-1,0)"
       inkscape:collect="always"
       xlink:href="#linearGradient4205"
       id="linearGradient4211"
       x1="15"
       y1="18"
       x2="15"
       y2="20"
       gradientUnits="userSpaceOnUse" />
  </defs>
  <g
     id="g21">
    <path
       d="m 36.31 5 c 5.859 4.062 9.688 10.831 9.688 18.5 c 0 12.426 -10.07 22.5 -22.5 22.5 c -7.669 0 -14.438 -3.828 -18.5 -9.688 c 1.037 1.822 2.306 3.499 3.781 4.969 c 4.085 3.712 9.514 5.969 15.469 5.969 c 12.703 0 23 -10.298 23 -23 c 0 -5.954 -2.256 -11.384 -5.969 -15.469 c -1.469 -1.475 -3.147 -2.744 -4.969 -3.781 z m 4.969 3.781 c 3.854 4.113 6.219 9.637 6.219 15.719 c 0 12.703 -10.297 23 -23 23 c -6.081 0 -11.606 -2.364 -15.719 -6.219 c 4.16 4.144 9.883 6.719 16.219 6.719 c 12.703 0 23 -10.298 23 -23 c 0 -6.335 -2.575 -12.06 -6.719 -16.219 z"
       opacity="0.05"
       id="path23" />
    <path
       d="m 41.28 8.781 c 3.712 4.085 5.969 9.514 5.969 15.469 c 0 12.703 -10.297 23 -23 23 c -5.954 0 -11.384 -2.256 -15.469 -5.969 c 4.113 3.854 9.637 6.219 15.719 6.219 c 12.703 0 23 -10.298 23 -23 c 0 -6.081 -2.364 -11.606 -6.219 -15.719 z"
       opacity="0.1"
       id="path25" />
    <path
       d="m 31.25 2.375 c 8.615 3.154 14.75 11.417 14.75 21.13 c 0 12.426 -10.07 22.5 -22.5 22.5 c -9.708 0 -17.971 -6.135 -21.12 -14.75 a 23 23 0 0 0 44.875 -7 a 23 23 0 0 0 -16 -21.875 z"
       opacity="0.2"
       id="path27" />
  </g>
  <g
     id="g29">
    <path
       d="m 24 1 c 12.703 0 23 10.297 23 23 c 0 12.703 -10.297 23 -23 23 -12.703 0 -23 -10.297 -23 -23 0 -12.703 10.297 -23 23 -23 z"
       fill="url(#linearGradient3764)"
       fill-opacity="1"
       id="path31"
       style="fill:url(#linearGradient4283);fill-opacity:1" />
  </g>
  <g
     id="g33" />
  <g
     id="g47">
    <g
       clip-path="url(#clipPath-824049301)"
       id="g49">
      <!-- color: #7dc06d -->
      <g
         id="g51" />
    </g>
  </g>
  <g
     id="g55">
    <path
       d="m 40.03 7.531 c 3.712 4.084 5.969 9.514 5.969 15.469 0 12.703 -10.297 23 -23 23 c -5.954 0 -11.384 -2.256 -15.469 -5.969 4.178 4.291 10.01 6.969 16.469 6.969 c 12.703 0 23 -10.298 23 -23 0 -6.462 -2.677 -12.291 -6.969 -16.469 z"
       opacity="0.1"
       id="path57" />
  </g>
  <g
     id="g3365">
    <path
       style="fill:#000000;fill-opacity:0.09803922;fill-rule:evenodd;stroke:none;stroke-width:1px;stroke-linecap:butt;stroke-linejoin:miter;stroke-opacity:1"
       d="M 13.5 14 C 12.669 14 12 14.669 12 15.5 L 12 34.5 C 12 35.331 12.669 36 13.5 36 L 28.5 36 C 29.331 36 30 35.331 30 34.5 L 30 31.400391 L 33 35 L 38 29 L 35 29 L 35 23 L 31 23 L 31 29 L 30 29 L 30 21 L 32 21 L 30 18.599609 L 30 15.5 C 30 14.669 29.331 14 28.5 14 L 13.5 14 z "
       id="rect3374" />
    <rect
       ry="1.5"
       rx="1.5"
       y="13"
       x="11"
       height="22"
       width="18"
       id="rect3378"
       style="fill:#ececec;fill-opacity:1;fill-rule:evenodd;stroke:none;stroke-width:1px;stroke-linecap:butt;stroke-linejoin:miter;stroke-opacity:1" />
    <rect
       ry="1.1428572"
       rx="1"
       y="15"
       x="13"
       height="8"
       width="14"
       id="rect4180"
       style="fill:#d2d2d2;fill-opacity:1;stroke:none" />
    <rect
       style="fill:#d2d2d2;fill-opacity:1;stroke:none"
       id="rect4182"
       width="14"
       height="8"
       x="13"
       y="25"
       rx="1"
       ry="1.1428572" />
    <rect
       ry="1.8503718e-17"
       rx="2.7755576e-17"
       y="18"
       x="15"
       height="2"
       width="10"
       id="rect4203"
       style="fill:url(#linearGradient4211);fill-opacity:1;stroke:none" />
    <rect
       style="fill:url(#linearGradient4215);fill-opacity:1;stroke:none"
       id="rect4213"
       width="10"
       height="2"
       x="15"
       y="28"
       rx="2.7755576e-17"
       ry="1.8503718e-17" />
    <path
       style="fill:#000000;fill-opacity:0.09803922;stroke:none"
       d="m 27,15 -5,6 3,0 0,6 4,0 0,-6 0,-3.599609 z"
       id="path3378"
       inkscape:connector-curvature="0"
       sodipodi:nodetypes="cccccccc" />
    <path
       id="rect4217"
       d="m 26,14 -5,6 3,0 0,6 4,0 0,-6 3,0 z m 4,8 0,6 -3,0 5,6 5,-6 -3,0 0,-6 z"
       style="fill:#606060;fill-opacity:1;stroke:none"
       inkscape:connector-curvature="0"
       sodipodi:nodetypes="cccccccccccccccc" />
  </g>
</svg>

<svg xmlns="http://www.w3.org/2000/svg" xmlns:xlink="http://www.w3.org/1999/xlink" viewBox="0 0 48 48">
 <defs>
  <clipPath id="clipPath-824049301">
   <g transform="translate(0,-1004.3622)">
    <path d="m -24 13 c 0 1.105 -0.672 2 -1.5 2 -0.828 0 -1.5 -0.895 -1.5 -2 0 -1.105 0.672 -2 1.5 -2 0.828 0 1.5 0.895 1.5 2 z" transform="matrix(15.333333,0,0,11.5,414.99999,878.8622)" style="fill:#1890d0"/>
   </g>
  </clipPath>
  <linearGradient id="linearGradient4283" y1="47" x2="0" y2="1" gradientUnits="userSpaceOnUse">
   <stop style="stop-color:#f8e653;stop-opacity:1"/>
   <stop offset="1" style="stop-color:#f9e967;stop-opacity:1"/>
  </linearGradient>
  <linearGradient xlink:href="#linearGradient4205" id="linearGradient4215" gradientUnits="userSpaceOnUse" y1="18" x2="0" y2="20" gradientTransform="translate(-1,9.9999986)"/>
  <linearGradient id="linearGradient4205">
   <stop style="stop-color:#9b9b9b;stop-opacity:1"/>
   <stop offset="1" style="stop-color:#b4b4b4;stop-opacity:1"/>
  </linearGradient>
  <linearGradient gradientTransform="translate(-1,0)" xlink:href="#linearGradient4205" id="linearGradient4211" y1="18" x2="0" y2="20" gradientUnits="userSpaceOnUse"/>
 </defs>
 <g>
  <path d="m 36.31 5 c 5.859 4.062 9.688 10.831 9.688 18.5 c 0 12.426 -10.07 22.5 -22.5 22.5 c -7.669 0 -14.438 -3.828 -18.5 -9.688 c 1.037 1.822 2.306 3.499 3.781 4.969 c 4.085 3.712 9.514 5.969 15.469 5.969 c 12.703 0 23 -10.298 23 -23 c 0 -5.954 -2.256 -11.384 -5.969 -15.469 c -1.469 -1.475 -3.147 -2.744 -4.969 -3.781 z m 4.969 3.781 c 3.854 4.113 6.219 9.637 6.219 15.719 c 0 12.703 -10.297 23 -23 23 c -6.081 0 -11.606 -2.364 -15.719 -6.219 c 4.16 4.144 9.883 6.719 16.219 6.719 c 12.703 0 23 -10.298 23 -23 c 0 -6.335 -2.575 -12.06 -6.719 -16.219 z" style="opacity:0.05"/>
  <path d="m 41.28 8.781 c 3.712 4.085 5.969 9.514 5.969 15.469 c 0 12.703 -10.297 23 -23 23 c -5.954 0 -11.384 -2.256 -15.469 -5.969 c 4.113 3.854 9.637 6.219 15.719 6.219 c 12.703 0 23 -10.298 23 -23 c 0 -6.081 -2.364 -11.606 -6.219 -15.719 z" style="opacity:0.1"/>
  <path d="m 31.25 2.375 c 8.615 3.154 14.75 11.417 14.75 21.13 c 0 12.426 -10.07 22.5 -22.5 22.5 c -9.708 0 -17.971 -6.135 -21.12 -14.75 a 23 23 0 0 0 44.875 -7 a 23 23 0 0 0 -16 -21.875 z" style="opacity:0.2"/>
 </g>
 <g>
  <path d="m 24 1 c 12.703 0 23 10.297 23 23 c 0 12.703 -10.297 23 -23 23 -12.703 0 -23 -10.297 -23 -23 0 -12.703 10.297 -23 23 -23 z" style="fill:url(#linearGradient4283);fill-opacity:1"/>
 </g>
 <g>
  <g style="clip-path:url(#clipPath-824049301)">
   <!-- color: #7dc06d -->
  </g>
 </g>
 <g>
  <path d="m 40.03 7.531 c 3.712 4.084 5.969 9.514 5.969 15.469 0 12.703 -10.297 23 -23 23 c -5.954 0 -11.384 -2.256 -15.469 -5.969 4.178 4.291 10.01 6.969 16.469 6.969 c 12.703 0 23 -10.298 23 -23 0 -6.462 -2.677 -12.291 -6.969 -16.469 z" style="opacity:0.1"/>
 </g>
 <g>
  <path d="m 13.5 14 c -0.831 0 -1.5 0.669 -1.5 1.5 l 0 19 c 0 0.831 0.669 1.5 1.5 1.5 l 15 0 c 0.831 0 1.5 -0.669 1.5 -1.5 l 0 -3.1 l 3 3.6 l 5 -6 l -3 0 l 0 -6 l -4 0 l 0 6 l -1 0 l 0 -8 l 2 0 l -2 -2.4 l 0 -3.1 c 0 -0.831 -0.669 -1.5 -1.5 -1.5 l -15 0 z" style="fill:#000;fill-opacity:0.098;stroke:none;fill-rule:evenodd"/>
  <rect rx="1.5" y="13" x="11" height="22" width="18" style="fill:#ececec;fill-opacity:1;stroke:none;fill-rule:evenodd"/>
  <rect ry="1.143" rx="1" y="15" x="13" height="8" width="14" style="fill:#d2d2d2;fill-opacity:1;stroke:none"/>
  <rect width="14" height="8" x="13" y="25" rx="1" ry="1.143" style="fill:#d2d2d2;fill-opacity:1;stroke:none"/>
  <rect rx="0" y="18" x="15" height="2" width="10" style="fill:url(#linearGradient4211);fill-opacity:1;stroke:none"/>
  <rect width="10" height="2" x="15" y="28" rx="0" style="fill:url(#linearGradient4215);fill-opacity:1;stroke:none"/>
  <path d="m 27 15 -5 6 3 0 0 6 4 0 0 -6 0 -3.6 z" style="fill:#000;fill-opacity:0.098;stroke:none"/>
  <path d="m 26 14 -5 6 3 0 0 6 4 0 0 -6 3 0 z m 4 8 0 6 -3 0 5 6 5 -6 -3 0 0 -6 z" style="fill:#606060;fill-opacity:1;stroke:none"/>
 </g>
</svg>
